src/svg/tech_doc_illustration.svg

<svg width="279" height="269" viewBox="0 0 279 269" fill="none" xmlns="http://www.w3.org/2000/svg">
<g opacity="0.3">
<path opacity="0.5" d="M98.5615 34.037H16.1759C14.519 34.037 13.1759 35.3801 13.1759 37.037V107.894C13.1759 109.551 14.519 110.894 16.1759 110.894H98.5615C100.218 110.894 101.562 109.551 101.562 107.894V37.037C101.562 35.3801 100.218 34.037 98.5615 34.037Z" fill="#4E5A71"/>
<path opacity="0.3" d="M97.1422 44.6049H17.5951V106.09H97.1422V44.6049Z" fill="#F7FAFB"/>
<path opacity="0.3" d="M21.1305 39.8013C21.1305 40.8625 20.3391 41.7227 19.3628 41.7227C18.3865 41.7227 17.5951 40.8625 17.5951 39.8013C17.5951 38.7401 18.3865 37.8799 19.3628 37.8799C20.3391 37.8799 21.1305 38.7401 21.1305 39.8013Z" fill="#F7FAFB"/>
<path opacity="0.3" d="M27.3175 39.8013C27.3175 40.8625 26.5261 41.7227 25.5498 41.7227C24.5735 41.7227 23.7821 40.8625 23.7821 39.8013C23.7821 38.7401 24.5735 37.8799 25.5498 37.8799C26.5261 37.8799 27.3175 38.7401 27.3175 39.8013Z" fill="#F7FAFB"/>
<path opacity="0.3" d="M31.7368 41.7227C32.7131 41.7227 33.5045 40.8625 33.5045 39.8013C33.5045 38.7401 32.7131 37.8799 31.7368 37.8799C30.7605 37.8799 29.9691 38.7401 29.9691 39.8013C29.9691 40.8625 30.7605 41.7227 31.7368 41.7227Z" fill="#F7FAFB"/>
<path opacity="0.3" d="M92.723 50.3691H22.0145V73.4262H92.723V50.3691Z" fill="#D2DCE3"/>
<path opacity="0.3" d="M23.4557 78.2299C22.6598 78.2299 22.0146 78.875 22.0146 79.6709C22.0146 80.4668 22.6598 81.112 23.4557 81.112H91.2821C92.0779 81.112 92.7231 80.4668 92.7231 79.6709C92.7231 78.875 92.0779 78.2299 91.2821 78.2299H23.4557Z" fill="#D2DCE3"/>
<path opacity="0.3" d="M23.456 83.9941C22.6601 83.9941 22.0149 84.6393 22.0149 85.4352C22.0149 86.2311 22.6601 86.8762 23.456 86.8762H91.2823C92.0782 86.8762 92.7234 86.2311 92.7234 85.4352C92.7234 84.6393 92.0782 83.9941 91.2823 83.9941H23.456Z" fill="#D2DCE3"/>
<path opacity="0.3" d="M31.6208 91.6798H23.0145C22.4622 91.6798 22.0145 92.1275 22.0145 92.6798V102.208C22.0145 102.761 22.4622 103.208 23.0145 103.208H31.6208C32.1731 103.208 32.6208 102.761 32.6208 102.208V92.6798C32.6208 92.1275 32.1731 91.6798 31.6208 91.6798Z" fill="#D2DCE3"/>
<path opacity="0.3" d="M91.7232 91.6798H83.1169C82.5646 91.6798 82.1169 92.1275 82.1169 92.6798V102.208C82.1169 102.761 82.5646 103.208 83.1169 103.208H91.7232C92.2755 103.208 92.7232 102.761 92.7232 102.208V92.6798C92.7232 92.1275 92.2755 91.6798 91.7232 91.6798Z" fill="#D2DCE3"/>
<path opacity="0.3" d="M76.6977 91.6798H68.0914C67.5391 91.6798 67.0914 92.1275 67.0914 92.6798V102.208C67.0914 102.761 67.5391 103.208 68.0914 103.208H76.6977C77.25 103.208 77.6977 102.761 77.6977 102.208V92.6798C77.6977 92.1275 77.25 91.6798 76.6977 91.6798Z" fill="#D2DCE3"/>
<path opacity="0.3" d="M61.6722 91.6798H53.0659C52.5136 91.6798 52.0659 92.1275 52.0659 92.6798V102.208C52.0659 102.761 52.5136 103.208 53.0659 103.208H61.6722C62.2245 103.208 62.6722 102.761 62.6722 102.208V92.6798C62.6722 92.1275 62.2245 91.6798 61.6722 91.6798Z" fill="#D2DCE3"/>
<path opacity="0.3" d="M46.6467 91.6798H38.0404C37.4881 91.6798 37.0404 92.1275 37.0404 92.6798V102.208C37.0404 102.761 37.4881 103.208 38.0404 103.208H46.6467C47.199 103.208 47.6467 102.761 47.6467 102.208V92.6798C47.6467 92.1275 47.199 91.6798 46.6467 91.6798Z" fill="#D2DCE3"/>
</g>
<g opacity="0.5">
<path opacity="0.7" d="M253.922 75.7592H183.065C181.408 75.7592 180.065 77.1024 180.065 78.7592V139.591C180.065 141.248 181.408 142.591 183.065 142.591H253.922C255.579 142.591 256.922 141.248 256.922 139.591V78.7592C256.922 77.1024 255.579 75.7592 253.922 75.7592Z" fill="#4E5A71"/>
<path opacity="0.5" d="M253.079 84.9486H183.908V138.414H253.079V84.9486Z" fill="#F7FAFB"/>
<path opacity="0.5" d="M186.982 80.7715C186.982 81.6943 186.294 82.4423 185.445 82.4423C184.596 82.4423 183.908 81.6943 183.908 80.7715C183.908 79.8488 184.596 79.1007 185.445 79.1007C186.294 79.1007 186.982 79.8488 186.982 80.7715Z" fill="#F7FAFB"/>
<path opacity="0.5" d="M192.362 80.7715C192.362 81.6943 191.674 82.4423 190.825 82.4423C189.976 82.4423 189.288 81.6943 189.288 80.7715C189.288 79.8488 189.976 79.1007 190.825 79.1007C191.674 79.1007 192.362 79.8488 192.362 80.7715Z" fill="#F7FAFB"/>
<path opacity="0.5" d="M196.205 82.4423C197.054 82.4423 197.742 81.6943 197.742 80.7715C197.742 79.8488 197.054 79.1007 196.205 79.1007C195.356 79.1007 194.668 79.8488 194.668 80.7715C194.668 81.6943 195.356 82.4423 196.205 82.4423Z" fill="#F7FAFB"/>
<path opacity="0.5" d="M249.237 89.961H187.751V110.011H249.237V89.961Z" fill="#D2DCE3"/>
<path opacity="0.5" d="M189.004 114.188C188.312 114.188 187.751 114.749 187.751 115.441C187.751 116.133 188.312 116.694 189.004 116.694H247.984C248.676 116.694 249.237 116.133 249.237 115.441C249.237 114.749 248.676 114.188 247.984 114.188H189.004Z" fill="#D2DCE3"/>
<path opacity="0.5" d="M189.004 119.2C188.312 119.2 187.751 119.761 187.751 120.453C187.751 121.145 188.312 121.706 189.004 121.706H247.983C248.675 121.706 249.236 121.145 249.236 120.453C249.236 119.761 248.675 119.2 247.983 119.2H189.004Z" fill="#D2DCE3"/>
<path opacity="0.5" d="M195.974 125.883H188.751C188.199 125.883 187.751 126.331 187.751 126.883V134.908C187.751 135.46 188.199 135.908 188.751 135.908H195.974C196.526 135.908 196.974 135.46 196.974 134.908V126.883C196.974 126.331 196.526 125.883 195.974 125.883Z" fill="#D2DCE3"/>
<path opacity="0.5" d="M248.237 125.883H241.014C240.462 125.883 240.014 126.331 240.014 126.883V134.908C240.014 135.46 240.462 135.908 241.014 135.908H248.237C248.789 135.908 249.237 135.46 249.237 134.908V126.883C249.237 126.331 248.789 125.883 248.237 125.883Z" fill="#D2DCE3"/>
<path opacity="0.5" d="M235.171 125.883H227.948C227.396 125.883 226.948 126.331 226.948 126.883V134.908C226.948 135.46 227.396 135.908 227.948 135.908H235.171C235.723 135.908 236.171 135.46 236.171 134.908V126.883C236.171 126.331 235.723 125.883 235.171 125.883Z" fill="#D2DCE3"/>
<path opacity="0.5" d="M222.105 125.883H214.882C214.33 125.883 213.882 126.331 213.882 126.883V134.908C213.882 135.46 214.33 135.908 214.882 135.908H222.105C222.657 135.908 223.105 135.46 223.105 134.908V126.883C223.105 126.331 222.657 125.883 222.105 125.883Z" fill="#D2DCE3"/>
<path opacity="0.5" d="M209.039 125.883H201.816C201.264 125.883 200.816 126.331 200.816 126.883V134.908C200.816 135.46 201.264 135.908 201.816 135.908H209.039C209.591 135.908 210.039 135.46 210.039 134.908V126.883C210.039 126.331 209.591 125.883 209.039 125.883Z" fill="#D2DCE3"/>
</g>
<g opacity="0.6">
<path opacity="0.6" d="M160.596 76.8572H45.8209C44.164 76.8572 42.8209 78.2003 42.8209 79.8572V222.081C42.8209 223.738 44.164 225.081 45.8209 225.081H160.596C162.253 225.081 163.596 223.738 163.596 222.081V79.8572C163.596 78.2003 162.253 76.8572 160.596 76.8572Z" fill="#D2DCE3"/>
<path opacity="0.6" d="M160.596 76.8572H45.8209C44.164 76.8572 42.8209 78.2003 42.8209 79.8572V222.081C42.8209 223.738 44.164 225.081 45.8209 225.081H160.596C162.253 225.081 163.596 223.738 163.596 222.081V79.8572C163.596 78.2003 162.253 76.8572 160.596 76.8572Z" stroke="#8194A1"/>
</g>
<g opacity="0.95">
<path opacity="0.95" d="M74.6615 95.2286C74.6615 93.5718 76.0046 92.2286 77.6615 92.2286H192.437C194.094 92.2286 195.437 93.5718 195.437 95.2286V242.943C195.437 244.6 194.094 245.943 192.437 245.943H106.364C105.552 245.943 104.774 245.613 104.209 245.03L75.5066 215.396C74.9646 214.836 74.6615 214.088 74.6615 213.309V95.2286Z" fill="#FDFDFD"/>
<path opacity="0.95" d="M74.6615 95.2286C74.6615 93.5718 76.0046 92.2286 77.6615 92.2286H192.437C194.094 92.2286 195.437 93.5718 195.437 95.2286V242.943C195.437 244.6 194.094 245.943 192.437 245.943H106.364C105.552 245.943 104.774 245.613 104.209 245.03L75.5066 215.396C74.9646 214.836 74.6615 214.088 74.6615 213.309V95.2286Z" stroke="#8194A1"/>
<path opacity="0.95" d="M74.6615 215.007H102.093C103.75 215.007 105.093 216.35 105.093 218.007V245.943L89.8773 230.475L74.6615 215.007Z" fill="#C4C4C4"/>
<path opacity="0.95" d="M74.6615 215.007H102.093C103.75 215.007 105.093 216.35 105.093 218.007V245.943L89.8773 230.475L74.6615 215.007Z" stroke="#8194A1"/>
</g>
<path d="M90.837 113.09C89.1802 113.09 87.837 114.433 87.837 116.09V137.539C87.837 139.196 89.1802 140.539 90.837 140.539H177.066C178.722 140.539 180.066 139.196 180.066 137.539V116.09C180.066 114.433 178.722 113.09 177.066 113.09H90.837Z" fill="#D2DCE3"/>
<path d="M89.7391 146.029C88.0823 146.029 86.7391 147.372 86.7391 149.029V164.988C86.7391 166.645 88.0823 167.988 89.7391 167.988H114.482C116.139 167.988 117.482 166.645 117.482 164.988V149.029C117.482 147.372 116.139 146.029 114.482 146.029H89.7391Z" fill="#D2DCE3"/>
<path d="M86.7391 174.38C86.7391 173.275 87.6346 172.38 88.7391 172.38H144.029C145.133 172.38 146.029 173.275 146.029 174.38V179.163C146.029 180.268 145.133 181.163 144.029 181.163H88.7391C87.6346 181.163 86.7391 180.268 86.7391 179.163V174.38Z" fill="#D2DCE3"/>
<path d="M88.7391 188.849C87.6346 188.849 86.7391 189.744 86.7391 190.849V195.633C86.7391 196.737 87.6346 197.633 88.7391 197.633H117.678C118.782 197.633 119.678 196.737 119.678 195.633V190.849C119.678 189.744 118.782 188.849 117.678 188.849H88.7391Z" fill="#D2DCE3"/>
<path fill-rule="evenodd" clip-rule="evenodd" d="M190.402 158.743C188.193 158.743 186.402 160.534 186.402 162.743V174.656C184.935 175.198 183.525 175.858 182.184 176.624L172.519 166.811C170.969 165.237 168.436 165.217 166.862 166.767L163.369 170.208C161.795 171.758 161.775 174.291 163.326 175.865L172.72 185.404C171.631 187.016 170.704 188.746 169.961 190.571H157.714C155.505 190.571 153.714 192.362 153.714 194.571V199.475C153.714 201.684 155.505 203.475 157.714 203.475H167.968C168.162 205.968 168.679 208.371 169.477 210.642L163.533 216.609C161.974 218.174 161.978 220.707 163.543 222.266L167.017 225.726C168.582 227.286 171.115 227.281 172.674 225.716L176.642 221.732C179.418 224.384 182.731 226.478 186.402 227.834V232.163C186.402 234.372 188.193 236.163 190.402 236.163H195.305C197.514 236.163 199.305 234.372 199.305 232.163V229.413C203.843 228.921 208.06 227.357 211.697 224.98L212.036 225.325C213.587 226.899 216.119 226.918 217.693 225.368L221.187 221.927C222.761 220.377 222.78 217.845 221.23 216.271L220.62 215.651C222.761 212.032 224.12 207.896 224.464 203.475H227.133C229.342 203.475 231.133 201.684 231.133 199.475V194.571C231.133 192.362 229.342 190.571 227.133 190.571H222.471C221.102 187.208 219.106 184.167 216.628 181.593L221.667 176.535C223.226 174.97 223.221 172.437 221.656 170.878L218.182 167.417C216.617 165.858 214.084 165.863 212.525 167.428L205.51 174.47C203.532 173.784 201.455 173.31 199.305 173.077V162.743C199.305 160.534 197.514 158.743 195.305 158.743H190.402ZM196.215 215.412C204.039 215.412 210.382 209.069 210.382 201.245C210.382 193.421 204.039 187.078 196.215 187.078C188.391 187.078 182.048 193.421 182.048 201.245C182.048 209.069 188.391 215.412 196.215 215.412Z" fill="#4E5A71"/>
<path d="M182.415 131.471C183.674 132.731 183.674 134.765 182.415 136.024L176.086 142.352L163.978 130.244L170.307 123.916C170.91 123.311 171.729 122.971 172.583 122.971C173.437 122.971 174.256 123.311 174.859 123.916L182.415 131.471Z" fill="#4E5A71"/>
<path fill-rule="evenodd" clip-rule="evenodd" d="M160.749 133.473L128.461 165.761V177.869H140.569L172.858 145.581L160.749 133.473ZM137.89 171.412H134.919V168.441L160.75 142.61L163.72 145.581L137.89 171.412Z" fill="#4E5A71"/>
</svg>

<svg width="279" height="269" fill="none" xmlns="http://www.w3.org/2000/svg"><g opacity=".3"><path opacity=".5" d="M98.561 34.037H16.176a3 3 0 00-3 3v70.857a3 3 0 003 3H98.56a3 3 0 003.001-3V37.037a3 3 0 00-3-3z" fill="#4E5A71"/><path opacity=".3" d="M97.142 44.605H17.595v61.485h79.547V44.605zM21.13 39.801c0 1.061-.79 1.922-1.767 1.922-.976 0-1.768-.86-1.768-1.922 0-1.06.792-1.921 1.768-1.921s1.768.86 1.768 1.921zM27.317 39.801c0 1.061-.79 1.922-1.767 1.922-.977 0-1.768-.86-1.768-1.922 0-1.06.791-1.921 1.768-1.921.976 0 1.767.86 1.767 1.921zM31.737 41.723c.976 0 1.768-.86 1.768-1.922 0-1.06-.792-1.921-1.768-1.921s-1.768.86-1.768 1.921.791 1.922 1.768 1.922z" fill="#F7FAFB"/><path opacity=".3" d="M92.723 50.37H22.014v23.056h70.709V50.37zM23.456 78.23a1.441 1.441 0 100 2.882h67.826a1.441 1.441 0 000-2.882H23.456zM23.456 83.994a1.441 1.441 0 100 2.882h67.826a1.441 1.441 0 100-2.882H23.456zM31.62 91.68h-8.605a1 1 0 00-1 1v9.528a1 1 0 001 1h8.606a1 1 0 001-1V92.68a1 1 0 00-1-1zM91.723 91.68h-8.606a1 1 0 00-1 1v9.528a1 1 0 001 1h8.606a1 1 0 001-1V92.68a1 1 0 00-1-1zM76.698 91.68H68.09a1 1 0 00-1 1v9.528a1 1 0 001 1h8.607a1 1 0 001-1V92.68a1 1 0 00-1-1zM61.672 91.68h-8.606a1 1 0 00-1 1v9.528a1 1 0 001 1h8.606a1 1 0 001-1V92.68a1 1 0 00-1-1zM46.647 91.68H38.04a1 1 0 00-1 1v9.528a1 1 0 001 1h8.607a1 1 0 001-1V92.68a1 1 0 00-1-1z" fill="#D2DCE3"/></g><g opacity=".5"><path opacity=".7" d="M253.922 75.76h-70.857a3 3 0 00-3 3v60.831a3 3 0 003 3h70.857a3 3 0 003-3V78.759a3 3 0 00-3-3z" fill="#4E5A71"/><path opacity=".5" d="M253.079 84.949h-69.171v53.465h69.171V84.949zM186.982 80.772c0 .922-.688 1.67-1.537 1.67s-1.537-.748-1.537-1.67c0-.923.688-1.671 1.537-1.671s1.537.748 1.537 1.67zM192.362 80.772c0 .922-.688 1.67-1.537 1.67s-1.537-.748-1.537-1.67c0-.923.688-1.671 1.537-1.671s1.537.748 1.537 1.67zM196.205 82.442c.849 0 1.537-.748 1.537-1.67 0-.923-.688-1.671-1.537-1.671s-1.537.748-1.537 1.67c0 .923.688 1.671 1.537 1.671z" fill="#F7FAFB"/><path opacity=".5" d="M249.237 89.961h-61.486v20.05h61.486v-20.05zM189.004 114.188a1.253 1.253 0 000 2.506h58.98a1.253 1.253 0 000-2.506h-58.98zM189.004 119.2a1.253 1.253 0 000 2.506h58.979a1.253 1.253 0 000-2.506h-58.979zM195.974 125.883h-7.223a1 1 0 00-1 1v8.025a1 1 0 001 1h7.223a1 1 0 001-1v-8.025a1 1 0 00-1-1zM248.237 125.883h-7.223a1 1 0 00-1 1v8.025a1 1 0 001 1h7.223a1 1 0 001-1v-8.025a1 1 0 00-1-1zM235.171 125.883h-7.223a1 1 0 00-1 1v8.025a1 1 0 001 1h7.223a1 1 0 001-1v-8.025a1 1 0 00-1-1zM222.105 125.883h-7.223a1 1 0 00-1 1v8.025a1 1 0 001 1h7.223a1 1 0 001-1v-8.025a1 1 0 00-1-1zM209.039 125.883h-7.223a1 1 0 00-1 1v8.025a1 1 0 001 1h7.223a1 1 0 001-1v-8.025a1 1 0 00-1-1z" fill="#D2DCE3"/></g><g opacity=".6"><path opacity=".6" d="M160.596 76.857H45.821a3 3 0 00-3 3v142.224a3 3 0 003 3h114.775a3 3 0 003-3V79.857a3 3 0 00-3-3z" fill="#D2DCE3"/><path opacity=".6" d="M160.596 76.857H45.821a3 3 0 00-3 3v142.224a3 3 0 003 3h114.775a3 3 0 003-3V79.857a3 3 0 00-3-3z" stroke="#8194A1"/></g><g opacity=".95"><path opacity=".95" d="M74.662 95.229a3 3 0 013-3h114.775a3 3 0 013 3v147.714a3 3 0 01-3 3h-86.073c-.812 0-1.59-.33-2.155-.913l-28.702-29.634a3 3 0 01-.846-2.087V95.229z" fill="#FDFDFD"/><path opacity=".95" d="M74.662 95.229a3 3 0 013-3h114.775a3 3 0 013 3v147.714a3 3 0 01-3 3h-86.073c-.812 0-1.59-.33-2.155-.913l-28.702-29.634a3 3 0 01-.846-2.087V95.229z" stroke="#8194A1"/><path opacity=".95" d="M74.662 215.007h27.431a3 3 0 013 3v27.936l-15.216-15.468-15.215-15.468z" fill="#C4C4C4"/><path opacity=".95" d="M74.662 215.007h27.431a3 3 0 013 3v27.936l-15.216-15.468-15.215-15.468z" stroke="#8194A1"/></g><path d="M90.837 113.09a3 3 0 00-3 3v21.449a3 3 0 003 3h86.229a3 3 0 003-3V116.09a3 3 0 00-3-3H90.837zM89.74 146.029a3 3 0 00-3 3v15.959a3 3 0 003 3h24.742a3 3 0 003-3v-15.959a3 3 0 00-3-3H89.739zM86.74 174.38a2 2 0 012-2h55.289a2 2 0 012 2v4.783a2 2 0 01-2 2h-55.29a2 2 0 01-2-2v-4.783zM88.74 188.849a2 2 0 00-2 2v4.784a2 2 0 002 2h28.938a2 2 0 002-2v-4.784a2 2 0 00-2-2H88.739z" fill="#D2DCE3"/><path fill-rule="evenodd" clip-rule="evenodd" d="M190.402 158.743a4 4 0 00-4 4v11.913a28.227 28.227 0 00-4.218 1.968l-9.665-9.813a4 4 0 00-5.657-.044l-3.493 3.441a4 4 0 00-.043 5.657l9.394 9.539a28.277 28.277 0 00-2.759 5.167h-12.247a4 4 0 00-4 4v4.904a4 4 0 004 4h10.254a28.197 28.197 0 001.509 7.167l-5.944 5.967a4 4 0 00.01 5.657l3.474 3.46a4 4 0 005.657-.01l3.968-3.984a28.364 28.364 0 009.76 6.102v4.329a4 4 0 004 4h4.903a4 4 0 004-4v-2.75a28.166 28.166 0 0012.392-4.433l.339.345a4 4 0 005.657.043l3.494-3.441a4 4 0 00.043-5.656l-.61-.62a28.158 28.158 0 003.844-12.176h2.669a4 4 0 004-4v-4.904a4 4 0 00-4-4h-4.662a28.381 28.381 0 00-5.843-8.978l5.039-5.058a4 4 0 00-.011-5.657l-3.474-3.461a4 4 0 00-5.657.011l-7.015 7.042a28.192 28.192 0 00-6.205-1.393v-10.334a4 4 0 00-4-4h-4.903zm5.813 56.669c7.824 0 14.167-6.343 14.167-14.167s-6.343-14.167-14.167-14.167-14.167 6.343-14.167 14.167 6.343 14.167 14.167 14.167z" fill="#4E5A71"/><path d="M182.415 131.471a3.216 3.216 0 010 4.553l-6.329 6.328-12.108-12.108 6.329-6.328a3.213 3.213 0 014.552 0l7.556 7.555z" fill="#4E5A71"/><path fill-rule="evenodd" clip-rule="evenodd" d="M160.749 133.473l-32.288 32.288v12.108h12.108l32.289-32.288-12.109-12.108zm-22.859 37.939h-2.971v-2.971l25.831-25.831 2.97 2.971-25.83 25.831z" fill="#4E5A71"/></svg>
